Newaita-dark/apps/22/com.github.coralynnmay.goodvibesapp.svg

<svg height="22" viewBox="0 0 22 22" width="22" xmlns="http://www.w3.org/2000/svg" xmlns:xlink="http://www.w3.org/1999/xlink"><linearGradient id="a" gradientUnits="userSpaceOnUse" x1="10.9151136" x2="10.9151136" y1="19.27333715" y2="20.18293042919"><stop offset="0" stop-opacity=".27451"/><stop offset="1" stop-opacity="0"/></linearGradient><linearGradient id="b"><stop offset="0" stop-opacity=".313726"/><stop offset=".222222" stop-opacity=".27451"/><stop offset="1" stop-opacity="0"/></linearGradient><radialGradient id="c" cx="450.908936" cy="189.579361" gradientTransform="matrix(.00000012 -.0537161 -.0966889 -.00000007 35.839821 43.721791)" gradientUnits="userSpaceOnUse" r="21.166656" xlink:href="#b"/><radialGradient id="d" cx="450.908936" cy="189.579361" gradientTransform="matrix(-.00000012 .0537161 .0966889 .00000007 -14.009609 -5.175142)" gradientUnits="userSpaceOnUse" r="21.166656" xlink:href="#b"/><radialGradient id="e" cx="450.908936" cy="189.579361" gradientTransform="matrix(-.00000012 -.0537161 .0966889 -.00000007 -14.009609 43.721791)" gradientUnits="userSpaceOnUse" r="21.166656" xlink:href="#b"/><radialGradient id="f" cx="450.908936" cy="189.579361" gradientTransform="matrix(.00000012 .0537161 -.0966889 .00000007 35.839819 -5.175142)" gradientUnits="userSpaceOnUse" r="21.166656" xlink:href="#b"/><linearGradient id="g" gradientUnits="userSpaceOnUse" x1="7.27674417081" x2="7.27674417081" y1="19.27333515" y2="1.99106765838"><stop offset="0" stop-color="#29b6f6"/><stop offset="1" stop-color="#4fc3f7"/></linearGradient><linearGradient id="h" gradientUnits="userSpaceOnUse" x1="10.9151166" x2="10.9151166" y1="19.27333515" y2="1.99106765838"><stop offset="0" stop-color="#5c6bc0"/><stop offset="1" stop-color="#7986cb"/></linearGradient><path d="m4.09375 19.207031h13.644531v1.007813h-13.644531zm0 0" fill="url(#a)"/><path d="m17.738281 19.273438h1.816407v-.910157h-1.816407zm0 0" fill="url(#c)"/><path d="m4.09375 19.273438h-1.820312v.910156h1.820312zm0 0" fill="url(#d)"/><path d="m4.09375 19.273438h-1.820312v-.910157h1.820312zm0 0" fill="url(#e)"/><path d="m17.738281 19.273438h1.816407v.910156h-1.816407zm0 0" fill="url(#f)"/><path d="m3.183594 1.992188h15.464844c.5 0 .90625.40625.90625.910156v15.460937c0 .503907-.40625.910157-.90625.910157h-15.464844c-.503906 0-.910156-.40625-.910156-.910157v-15.460937c0-.503906.40625-.910156.910156-.910156zm0 0" fill="url(#g)"/><path d="m3.183594 1.992188c-.503906 0-.910156.40625-.910156.910156v.113281c0-.503906.40625-.910156.910156-.910156h15.464844c.503906 0 .90625.40625.90625.910156v-.113281c0-.503906-.402344-.910156-.90625-.910156zm0 0" fill="#e6e6e6" fill-opacity=".392157"/><path d="m3.183594 19.273438c-.503906 0-.910156-.40625-.910156-.910157v-.113281c0 .503906.40625.910156.910156.910156h15.464844c.503906 0 .90625-.40625.90625-.910156v.113281c0 .503907-.402344.910157-.90625.910157zm0 0" fill-opacity=".196078"/><path d="m74.083834-168.640791h359.874725c11.635253 0 21.088895 9.453643 21.088895 21.179796v359.783824c0 11.726153-9.453642 21.179796-21.088895 21.179796h-359.874725c-11.726152 0-21.179795-9.453643-21.179795-21.179796v-359.783824c0-11.726153 9.453643-21.179796 21.179795-21.179796zm0 0" fill="none" stroke="#212121" stroke-linecap="round" stroke-width="3" transform="matrix(.0429729 0 0 .0429729 0 9.239163)"/><path d="m5.519531 14.519531c-1.8125-.476562-2.5625-1.851562-2.148437-3.9375.5-2.542969 2.277344-3.953125 4.964844-3.941406 4.050781.019531 5.265624.097656 5.238281.347656-.019531.21875-.042969.238281-.359375.273438-.457032.050781-.460938-.039063.113281 2.648437.511719 2.402344.5625 2.570313.738281 2.378906.230469-.246093 2.980469-4.886718 2.9375-4.953124-.023437-.039063-.210937-.074219-.414062-.074219-.386719 0-.414063-.027344-.324219-.355469.046875-.179688 2.28125-.277344 2.28125-.097656 0 .277344-.160156.453125-.40625.453125-.339844 0-.273437-.09375-2.339844 3.34375-2.589843 4.308593-2.253906 3.875-2.980469 3.847656-.683593-.023437-.539062.367187-1.449218-3.960937-.550782-2.621094-1.148438-3.34375-2.773438-3.34375-1.847656 0-3.046875 1.738281-3.171875 4.589843-.085937 2.003907 1.035157 2.859375 2.839844 2.160157.484375-.183594.5-.210938.710937-1.253907.238282-1.171875.234376-1.175781-.308593-1.175781-.421875 0-.421875 0-.371094-.246094.078125-.363281.0625-.363281 1.46875-.339844 1.535156.023438 1.402344-.191406 1.042969 1.722657-.269532 1.421875-.203125 1.355469-1.722656 1.765625-.867188.238281-2.90625.320312-3.566407.148437zm0 0" fill="url(#h)"/><path d="m8.335938 6.679688c-2.6875-.011719-4.464844 1.398437-4.964844 3.941406-.082032.402344-.117188.78125-.113282 1.128906.007813-.304688.042969-.628906.113282-.972656.5-2.542969 2.277344-3.953125 4.964844-3.941406 3.761718.019531 5.074218.089843 5.226562.296874.003906-.027343.007812-.0625.011719-.105468.027343-.25-1.1875-.328125-5.238281-.347656zm9.5.070312c-.65625.003906-1.539063.082031-1.570313.195312-.039063.140626-.054687.226563-.03125.28125.007813-.035156.019531-.078124.03125-.125.046875-.171874 2.078125-.265624 2.265625-.121093.011719-.039063.015625-.085938.015625-.132813 0-.066406-.316406-.097656-.710937-.097656zm-.886719.75c-.386719.753906-2.675781 4.605469-2.882813 4.828125-.175781.191406-.226562.023437-.738281-2.378906-.277344-1.289063-.417969-1.941407-.441406-2.273438-.027344.265625.113281.894531.441406 2.433594.511719 2.398437.5625 2.570313.738281 2.378906.230469-.25 2.980469-4.890625 2.9375-4.957031-.003906-.011719-.023437-.019531-.054687-.03125zm-7.917969 3.414062c-.667969.003907-.671875.0625-.734375.347657-.019531.105469-.03125.164062-.007813.199219.003907-.011719.007813-.027344.007813-.039063.078125-.367187.0625-.363281 1.46875-.339844.914063.011719 1.238281-.058593 1.273437.285157.039063-.519532-.238281-.429688-1.273437-.445313-.304687-.003906-.546875-.007813-.734375-.007813zm.09375.941407c-.015625.175781-.066406.433593-.148438.828125-.210937 1.046875-.226562 1.070312-.710937 1.257812-1.714844.660156-2.8125-.078125-2.84375-1.867187-.03125 1.90625 1.082031 2.703125 2.84375 2.023437.484375-.1875.5-.210937.710937-1.257812.109376-.535156.167969-.824219.148438-.984375zm0 0" fill="#fff" fill-opacity=".392157"/><path d="m18.480469 7.152344c-.070313.117187-.1875.183594-.339844.183594-.339844 0-.273437-.09375-2.339844 3.34375-2.589843 4.308593-2.253906 3.875-2.980469 3.847656-.683593-.023438-.539062.367187-1.449218-3.960938-.550782-2.621094-1.148438-3.34375-2.773438-3.34375-1.847656 0-3.046875 1.738282-3.171875 4.589844-.003906.128906-.003906.253906 0 .375 0-.019531 0-.039062 0-.058594.125-2.851562 1.324219-4.585937 3.171875-4.585937 1.625 0 2.222656.71875 2.773438 3.339843.910156 4.328126.765625 3.941407 1.449218 3.964844.726563.027344.390626.460938 2.980469-3.851562 2.066407-3.4375 2-3.339844 2.339844-3.339844.246094 0 .40625-.175781.40625-.457031 0-.015625-.023437-.03125-.066406-.046875zm-4.988281.125c-.050782.03125-.132813.042968-.277344.058594-.257813.03125-.371094.011718-.316406.476562.035156-.136719.144531-.136719.316406-.15625.316406-.035156.339844-.054688.359375-.273438.003906-.039062-.019531-.074218-.082031-.105468zm2.773437.019531v.003906c-.089844.328125-.0625.355469.324219.355469.105468 0 .207031.007812.285156.023438.085938-.160157.136719-.261719.128906-.269532-.023437-.039062-.210937-.074218-.414062-.074218-.171875 0-.273438-.003907-.324219-.039063zm-5.238281 4.207031c-.03125.253906-.117188.628906-.21875 1.175782-.269532 1.421874-.203125 1.355468-1.722656 1.765624-.867188.238282-2.90625.320313-3.566407.148438-1.4375-.378906-2.203125-1.316406-2.257812-2.730469-.054688 1.589844.714843 2.644531 2.257812 3.046875.660157.175782 2.699219.089844 3.566407-.144531 1.519531-.414063 1.453124-.34375 1.722656-1.765625.160156-.847656.273437-1.277344.21875-1.496094zm-2.707032.015625c-.007812.027344-.015624.0625-.023437.097657-.050781.242187-.050781.242187.371094.242187.265625 0 .398437.003906.445312.136719.058594-.449219-.050781-.453125-.445312-.453125-.191407 0-.296875 0-.347657-.023438zm0 0" fill-opacity=".235294"/><path d="m128.44228 122.876825c-42.177791-11.08985-59.630669-43.086794-49.995226-91.627613 11.635253-59.176167 52.994939-91.991216 115.534422-91.718514 94.263725.454502 122.533753 2.27251 121.89745 8.090136-.454502 5.090423-.999905 5.544925-8.362838 6.363029-10.635348 1.181705-10.726248-.909004 2.636112 61.630478 11.907954 55.903752 13.089659 59.81247 17.180178 55.35835 5.363124-5.726726 69.357013-113.716413 68.357108-115.26172-.545402-.909004-4.908622-1.727108-9.635443-1.727108-8.999141 0-9.635444-.636303-7.544734-8.271937 1.090805-4.181419 53.085839-6.45393 53.085839-2.272511 0 6.453929-3.726916 10.544448-9.453642 10.544448-7.908336 0-6.363029-2.18161-54.449346 77.810751-60.266972 100.263153-52.449537 90.173207-69.357013 89.536904-15.907572-.545402-12.544257 8.544639-33.724052-92.173016-12.816958-60.994175-26.724721-77.810751-64.539292-77.810751-42.995894 0-70.90232 40.450683-73.811133 106.807982-1.999809 46.631911 24.088609 66.5391 66.084598 50.267927 11.271651-4.272319 11.635253-4.908622 16.543875-29.179032 5.544925-27.270123 5.454025-27.361023-7.181132-27.361023-9.817245 0-9.817245 0-8.635539-5.726726 1.818008-8.453738 1.454406-8.453738 34.178554-7.908336 35.723861.545403 32.633247-4.45412 24.270409 40.087081-6.272128 33.08775-4.726821 31.542443-40.087081 41.086986-20.179891 5.544925-67.629905 7.453833-82.992074 3.454215zm0 0" fill="none" stroke="#212121" stroke-width="3" transform="matrix(.0429729 0 0 .0429729 0 9.239163)"/></svg>

<?xml version="1.0" encoding="UTF-8"?>
<svg xmlns="http://www.w3.org/2000/svg" xmlns:xlink="http://www.w3.org/1999/xlink" width="22px" height="22px" viewBox="0 0 22 22" version="1.1">
<defs>
<linearGradient id="linear0" gradientUnits="userSpaceOnUse" x1="254" y1="233.5" x2="254" y2="254.666672" gradientTransform="matrix(0.0429729,0,0,0.0429729,-0.00000262285,9.239165)">
<stop offset="0" style="stop-color:rgb(0%,0%,0%);stop-opacity:0.27451;"/>
<stop offset="1" style="stop-color:rgb(0%,0%,0%);stop-opacity:0;"/>
</linearGradient>
<radialGradient id="radial0" gradientUnits="userSpaceOnUse" cx="450.908936" cy="189.579361" fx="450.908936" fy="189.579361" r="21.166656" gradientTransform="matrix(0.000000119742,-0.0537161,-0.0966889,-0.0000000698078,35.839821,43.721791)">
<stop offset="0" style="stop-color:rgb(0%,0%,0%);stop-opacity:0.313726;"/>
<stop offset="0.222222" style="stop-color:rgb(0%,0%,0%);stop-opacity:0.27451;"/>
<stop offset="1" style="stop-color:rgb(0%,0%,0%);stop-opacity:0;"/>
</radialGradient>
<radialGradient id="radial1" gradientUnits="userSpaceOnUse" cx="450.908936" cy="189.579361" fx="450.908936" fy="189.579361" r="21.166656" gradientTransform="matrix(-0.000000119742,0.0537161,0.0966889,0.0000000698078,-14.009609,-5.175142)">
<stop offset="0" style="stop-color:rgb(0%,0%,0%);stop-opacity:0.313726;"/>
<stop offset="0.222222" style="stop-color:rgb(0%,0%,0%);stop-opacity:0.27451;"/>
<stop offset="1" style="stop-color:rgb(0%,0%,0%);stop-opacity:0;"/>
</radialGradient>
<radialGradient id="radial2" gradientUnits="userSpaceOnUse" cx="450.908936" cy="189.579361" fx="450.908936" fy="189.579361" r="21.166656" gradientTransform="matrix(-0.000000119742,-0.0537161,0.0966889,-0.0000000698078,-14.009609,43.721791)">
<stop offset="0" style="stop-color:rgb(0%,0%,0%);stop-opacity:0.313726;"/>
<stop offset="0.222222" style="stop-color:rgb(0%,0%,0%);stop-opacity:0.27451;"/>
<stop offset="1" style="stop-color:rgb(0%,0%,0%);stop-opacity:0;"/>
</radialGradient>
<radialGradient id="radial3" gradientUnits="userSpaceOnUse" cx="450.908936" cy="189.579361" fx="450.908936" fy="189.579361" r="21.166656" gradientTransform="matrix(0.000000119742,0.0537161,-0.0966889,0.0000000698078,35.839819,-5.175142)">
<stop offset="0" style="stop-color:rgb(0%,0%,0%);stop-opacity:0.313726;"/>
<stop offset="0.222222" style="stop-color:rgb(0%,0%,0%);stop-opacity:0.27451;"/>
<stop offset="1" style="stop-color:rgb(0%,0%,0%);stop-opacity:0;"/>
</radialGradient>
<linearGradient id="linear1" gradientUnits="userSpaceOnUse" x1="169.333328" y1="233.5" x2="169.333328" y2="-168.666656" gradientTransform="matrix(0.0429729,0,0,0.0429729,0,9.239163)">
<stop offset="0" style="stop-color:rgb(16.078432%,71.372551%,96.470588%);stop-opacity:1;"/>
<stop offset="1" style="stop-color:rgb(30.980393%,76.47059%,96.862745%);stop-opacity:1;"/>
</linearGradient>
<linearGradient id="linear2" gradientUnits="userSpaceOnUse" x1="254" y1="233.5" x2="254" y2="-168.666656" gradientTransform="matrix(0.0429729,0,0,0.0429729,0,9.239163)">
<stop offset="0" style="stop-color:rgb(36.078432%,41.960785%,75.294119%);stop-opacity:1;"/>
<stop offset="1" style="stop-color:rgb(47.450981%,52.549022%,79.607844%);stop-opacity:1;"/>
</linearGradient>
</defs>
<g id="surface1">
<path style=" stroke:none;fill-rule:nonzero;fill:url(#linear0);" d="M 4.09375 19.207031 L 17.738281 19.207031 L 17.738281 20.214844 L 4.09375 20.214844 Z M 4.09375 19.207031 "/>
<path style=" stroke:none;fill-rule:nonzero;fill:url(#radial0);" d="M 17.738281 19.273438 L 19.554688 19.273438 L 19.554688 18.363281 L 17.738281 18.363281 Z M 17.738281 19.273438 "/>
<path style=" stroke:none;fill-rule:nonzero;fill:url(#radial1);" d="M 4.09375 19.273438 L 2.273438 19.273438 L 2.273438 20.183594 L 4.09375 20.183594 Z M 4.09375 19.273438 "/>
<path style=" stroke:none;fill-rule:nonzero;fill:url(#radial2);" d="M 4.09375 19.273438 L 2.273438 19.273438 L 2.273438 18.363281 L 4.09375 18.363281 Z M 4.09375 19.273438 "/>
<path style=" stroke:none;fill-rule:nonzero;fill:url(#radial3);" d="M 17.738281 19.273438 L 19.554688 19.273438 L 19.554688 20.183594 L 17.738281 20.183594 Z M 17.738281 19.273438 "/>
<path style=" stroke:none;fill-rule:nonzero;fill:url(#linear1);" d="M 3.183594 1.992188 L 18.648438 1.992188 C 19.148438 1.992188 19.554688 2.398438 19.554688 2.902344 L 19.554688 18.363281 C 19.554688 18.867188 19.148438 19.273438 18.648438 19.273438 L 3.183594 19.273438 C 2.679688 19.273438 2.273438 18.867188 2.273438 18.363281 L 2.273438 2.902344 C 2.273438 2.398438 2.679688 1.992188 3.183594 1.992188 Z M 3.183594 1.992188 "/>
<path style=" stroke:none;fill-rule:nonzero;fill:rgb(90.196079%,90.196079%,90.196079%);fill-opacity:0.392157;" d="M 3.183594 1.992188 C 2.679688 1.992188 2.273438 2.398438 2.273438 2.902344 L 2.273438 3.015625 C 2.273438 2.511719 2.679688 2.105469 3.183594 2.105469 L 18.648438 2.105469 C 19.152344 2.105469 19.554688 2.511719 19.554688 3.015625 L 19.554688 2.902344 C 19.554688 2.398438 19.152344 1.992188 18.648438 1.992188 Z M 3.183594 1.992188 "/>
<path style=" stroke:none;fill-rule:nonzero;fill:rgb(0%,0%,0%);fill-opacity:0.196078;" d="M 3.183594 19.273438 C 2.679688 19.273438 2.273438 18.867188 2.273438 18.363281 L 2.273438 18.25 C 2.273438 18.753906 2.679688 19.160156 3.183594 19.160156 L 18.648438 19.160156 C 19.152344 19.160156 19.554688 18.753906 19.554688 18.25 L 19.554688 18.363281 C 19.554688 18.867188 19.152344 19.273438 18.648438 19.273438 Z M 3.183594 19.273438 "/>
<path style="fill:none;stroke-width:3;stroke-linecap:round;stroke-linejoin:miter;stroke:rgb(12.941177%,12.941177%,12.941177%);stroke-opacity:1;stroke-miterlimit:4;" d="M 74.083834 -168.640791 L 433.958559 -168.640791 C 445.593812 -168.640791 455.047454 -159.187148 455.047454 -147.460995 L 455.047454 212.322829 C 455.047454 224.048982 445.593812 233.502625 433.958559 233.502625 L 74.083834 233.502625 C 62.357682 233.502625 52.904039 224.048982 52.904039 212.322829 L 52.904039 -147.460995 C 52.904039 -159.187148 62.357682 -168.640791 74.083834 -168.640791 Z M 74.083834 -168.640791 " transform="matrix(0.0429729,0,0,0.0429729,0,9.239163)"/>
<path style=" stroke:none;fill-rule:nonzero;fill:url(#linear2);" d="M 5.519531 14.519531 C 3.707031 14.042969 2.957031 12.667969 3.371094 10.582031 C 3.871094 8.039062 5.648438 6.628906 8.335938 6.640625 C 12.386719 6.660156 13.601562 6.738281 13.574219 6.988281 C 13.554688 7.207031 13.53125 7.226562 13.214844 7.261719 C 12.757812 7.3125 12.753906 7.222656 13.328125 9.910156 C 13.839844 12.3125 13.890625 12.480469 14.066406 12.289062 C 14.296875 12.042969 17.046875 7.402344 17.003906 7.335938 C 16.980469 7.296875 16.792969 7.261719 16.589844 7.261719 C 16.203125 7.261719 16.175781 7.234375 16.265625 6.90625 C 16.3125 6.726562 18.546875 6.628906 18.546875 6.808594 C 18.546875 7.085938 18.386719 7.261719 18.140625 7.261719 C 17.800781 7.261719 17.867188 7.167969 15.800781 10.605469 C 13.210938 14.914062 13.546875 14.480469 12.820312 14.453125 C 12.136719 14.429688 12.28125 14.820312 11.371094 10.492188 C 10.820312 7.871094 10.222656 7.148438 8.597656 7.148438 C 6.75 7.148438 5.550781 8.886719 5.425781 11.738281 C 5.339844 13.742188 6.460938 14.597656 8.265625 13.898438 C 8.75 13.714844 8.765625 13.6875 8.976562 12.644531 C 9.214844 11.472656 9.210938 11.46875 8.667969 11.46875 C 8.246094 11.46875 8.246094 11.46875 8.296875 11.222656 C 8.375 10.859375 8.359375 10.859375 9.765625 10.882812 C 11.300781 10.90625 11.167969 10.691406 10.808594 12.605469 C 10.539062 14.027344 10.605469 13.960938 9.085938 14.371094 C 8.21875 14.609375 6.179688 14.691406 5.519531 14.519531 Z M 5.519531 14.519531 "/>
<path style=" stroke:none;fill-rule:nonzero;fill:rgb(100%,100%,100%);fill-opacity:0.392157;" d="M 8.335938 6.679688 C 5.648438 6.667969 3.871094 8.078125 3.371094 10.621094 C 3.289062 11.023438 3.253906 11.402344 3.257812 11.75 C 3.265625 11.445312 3.300781 11.121094 3.371094 10.777344 C 3.871094 8.234375 5.648438 6.824219 8.335938 6.835938 C 12.097656 6.855469 13.410156 6.925781 13.5625 7.132812 C 13.566406 7.105469 13.570312 7.070312 13.574219 7.027344 C 13.601562 6.777344 12.386719 6.699219 8.335938 6.679688 Z M 17.835938 6.75 C 17.179688 6.753906 16.296875 6.832031 16.265625 6.945312 C 16.226562 7.085938 16.210938 7.171875 16.234375 7.226562 C 16.242188 7.191406 16.253906 7.148438 16.265625 7.101562 C 16.3125 6.929688 18.34375 6.835938 18.53125 6.980469 C 18.542969 6.941406 18.546875 6.894531 18.546875 6.847656 C 18.546875 6.78125 18.230469 6.75 17.835938 6.75 Z M 16.949219 7.5 C 16.5625 8.253906 14.273438 12.105469 14.066406 12.328125 C 13.890625 12.519531 13.839844 12.351562 13.328125 9.949219 C 13.050781 8.660156 12.910156 8.007812 12.886719 7.675781 C 12.859375 7.941406 13 8.570312 13.328125 10.109375 C 13.839844 12.507812 13.890625 12.679688 14.066406 12.488281 C 14.296875 12.238281 17.046875 7.597656 17.003906 7.53125 C 17 7.519531 16.980469 7.511719 16.949219 7.5 Z M 9.03125 10.914062 C 8.363281 10.917969 8.359375 10.976562 8.296875 11.261719 C 8.277344 11.367188 8.265625 11.425781 8.289062 11.460938 C 8.292969 11.449219 8.296875 11.433594 8.296875 11.421875 C 8.375 11.054688 8.359375 11.058594 9.765625 11.082031 C 10.679688 11.09375 11.003906 11.023438 11.039062 11.367188 C 11.078125 10.847656 10.800781 10.9375 9.765625 10.921875 C 9.460938 10.917969 9.21875 10.914062 9.03125 10.914062 Z M 9.125 11.855469 C 9.109375 12.03125 9.058594 12.289062 8.976562 12.683594 C 8.765625 13.730469 8.75 13.753906 8.265625 13.941406 C 6.550781 14.601562 5.453125 13.863281 5.421875 12.074219 C 5.390625 13.980469 6.503906 14.777344 8.265625 14.097656 C 8.75 13.910156 8.765625 13.886719 8.976562 12.839844 C 9.085938 12.304688 9.144531 12.015625 9.125 11.855469 Z M 9.125 11.855469 "/>
<path style=" stroke:none;fill-rule:nonzero;fill:rgb(0%,0%,0%);fill-opacity:0.235294;" d="M 18.480469 7.152344 C 18.410156 7.269531 18.292969 7.335938 18.140625 7.335938 C 17.800781 7.335938 17.867188 7.242188 15.800781 10.679688 C 13.210938 14.988281 13.546875 14.554688 12.820312 14.527344 C 12.136719 14.503906 12.28125 14.894531 11.371094 10.566406 C 10.820312 7.945312 10.222656 7.222656 8.597656 7.222656 C 6.75 7.222656 5.550781 8.960938 5.425781 11.8125 C 5.421875 11.941406 5.421875 12.066406 5.425781 12.1875 C 5.425781 12.167969 5.425781 12.148438 5.425781 12.128906 C 5.550781 9.277344 6.75 7.542969 8.597656 7.542969 C 10.222656 7.542969 10.820312 8.261719 11.371094 10.882812 C 12.28125 15.210938 12.136719 14.824219 12.820312 14.847656 C 13.546875 14.875 13.210938 15.308594 15.800781 10.996094 C 17.867188 7.558594 17.800781 7.65625 18.140625 7.65625 C 18.386719 7.65625 18.546875 7.480469 18.546875 7.199219 C 18.546875 7.183594 18.523438 7.167969 18.480469 7.152344 Z M 13.492188 7.277344 C 13.441406 7.308594 13.359375 7.320312 13.214844 7.335938 C 12.957031 7.367188 12.84375 7.347656 12.898438 7.8125 C 12.933594 7.675781 13.042969 7.675781 13.214844 7.65625 C 13.53125 7.621094 13.554688 7.601562 13.574219 7.382812 C 13.578125 7.34375 13.554688 7.308594 13.492188 7.277344 Z M 16.265625 7.296875 C 16.265625 7.296875 16.265625 7.296875 16.265625 7.300781 C 16.175781 7.628906 16.203125 7.65625 16.589844 7.65625 C 16.695312 7.65625 16.796875 7.664062 16.875 7.679688 C 16.960938 7.519531 17.011719 7.417969 17.003906 7.410156 C 16.980469 7.371094 16.792969 7.335938 16.589844 7.335938 C 16.417969 7.335938 16.316406 7.332031 16.265625 7.296875 Z M 11.027344 11.503906 C 10.996094 11.757812 10.910156 12.132812 10.808594 12.679688 C 10.539062 14.101562 10.605469 14.035156 9.085938 14.445312 C 8.21875 14.683594 6.179688 14.765625 5.519531 14.59375 C 4.082031 14.214844 3.316406 13.277344 3.261719 11.863281 C 3.207031 13.453125 3.976562 14.507812 5.519531 14.910156 C 6.179688 15.085938 8.21875 15 9.085938 14.765625 C 10.605469 14.351562 10.539062 14.421875 10.808594 13 C 10.96875 12.152344 11.082031 11.722656 11.027344 11.503906 Z M 8.320312 11.519531 C 8.3125 11.546875 8.304688 11.582031 8.296875 11.617188 C 8.246094 11.859375 8.246094 11.859375 8.667969 11.859375 C 8.933594 11.859375 9.066406 11.863281 9.113281 11.996094 C 9.171875 11.546875 9.0625 11.542969 8.667969 11.542969 C 8.476562 11.542969 8.371094 11.542969 8.320312 11.519531 Z M 8.320312 11.519531 "/>
<path style="fill:none;stroke-width:3;stroke-linecap:butt;stroke-linejoin:miter;stroke:rgb(12.941177%,12.941177%,12.941177%);stroke-opacity:1;stroke-miterlimit:4;" d="M 128.44228 122.876825 C 86.264489 111.786975 68.811611 79.790031 78.447054 31.249212 C 90.082307 -27.926955 131.441993 -60.742004 193.981476 -60.469302 C 288.245201 -60.0148 316.515229 -58.196792 315.878926 -52.379166 C 315.424424 -47.288743 314.879021 -46.834241 307.516088 -46.016137 C 296.88074 -44.834432 296.78984 -46.925141 310.1522 15.614341 C 322.060154 71.518093 323.241859 75.426811 327.332378 70.972691 C 332.695502 65.245965 396.689391 -42.743722 395.689486 -44.289029 C 395.144084 -45.198033 390.780864 -46.016137 386.054043 -46.016137 C 377.054902 -46.016137 376.418599 -46.65244 378.509309 -54.288074 C 379.600114 -58.469493 431.595148 -60.742004 431.595148 -56.560585 C 431.595148 -50.106656 427.868232 -46.016137 422.141506 -46.016137 C 414.23317 -46.016137 415.778477 -48.197747 367.69216 31.794614 C 307.425188 132.057767 315.242623 121.967821 298.335147 121.331518 C 282.427575 120.786116 285.79089 129.876157 264.611095 29.158502 C 251.794137 -31.835673 237.886374 -48.652249 200.071803 -48.652249 C 157.075909 -48.652249 129.169483 -8.201566 126.26067 58.155733 C 124.260861 104.787644 150.349279 124.694833 192.345268 108.42366 C 203.616919 104.151341 203.980521 103.515038 208.889143 79.244628 C 214.434068 51.974505 214.343168 51.883605 201.708011 51.883605 C 191.890766 51.883605 191.890766 51.883605 193.072472 46.156879 C 194.89048 37.703141 194.526878 37.703141 227.251026 38.248543 C 262.974887 38.793946 259.884273 33.794423 251.521435 78.335624 C 245.249307 111.423374 246.794614 109.878067 211.434354 119.42261 C 191.254463 124.967535 143.804449 126.876443 128.44228 122.876825 Z M 128.44228 122.876825 " transform="matrix(0.0429729,0,0,0.0429729,0,9.239163)"/>
</g>
</svg>
